X: 39672
T: Tenpenny Bit, The
R: jig
M: 6/8
K: Adorian
g|eAA eAA|BAB GBd|eAA eAA|def gfg|
eAA eAA|BAB GBd|ede gdB|BAG A2:|
|:d|eaa eaa|egg egg|eaa eaa|def gfg|
eaa eaa|egg egg|def gdB|BAG A2:|

